public/images/nuxt_logo.svg

<svg width="221" height="65" viewBox="0 0 221 65" fill="none" xmlns="http://www.w3.org/2000/svg">
<path d="M76.333 20.5005H82.8185L96.5631 42.4764V20.5005H102.55V51.6393H96.1087L82.3198 29.7091V51.6393H76.333V20.5005Z" fill="#012A35"/>
<path d="M129.311 51.6393H123.732V48.1611C122.462 50.6089 119.877 51.9871 116.612 51.9871C111.441 51.9871 108.083 48.3393 108.083 43.0894V29.2178H113.662V41.9416C113.662 45.0111 115.568 47.1459 118.425 47.1459C121.555 47.1459 123.732 44.7437 123.732 41.4524V29.2178H129.311V51.6393Z" fill="#012A35"/>
<path d="M148.724 51.2848L143.372 43.811L138.019 51.2848H132.076L140.333 39.5849L132.712 28.8633H138.79L143.372 35.3154L147.906 28.8633H154.031L146.364 39.5849L154.62 51.2848H148.724Z" fill="#012A35"/>
<path d="M165.96 22.4565V29.2173H172.311V33.7999H165.96V44.9302C165.96 45.304 166.111 45.6626 166.381 45.9271C166.65 46.1916 167.015 46.3405 167.397 46.3411H172.311V51.6302H168.636C163.646 51.6302 160.381 48.7824 160.381 43.8042V33.8043H155.891V29.2173H158.708C160.022 29.2173 160.787 28.45 160.787 27.1804V22.4565H165.96Z" fill="#012A35"/>
<path d="M186.374 44.5872V20.5005H192.359V42.7416C192.359 48.748 189.411 51.6393 184.422 51.6393H177.455V46.3502H184.577C185.053 46.3502 185.511 46.1645 185.848 45.8339C186.185 45.5032 186.374 45.0548 186.374 44.5872" fill="#012A35"/>
<path d="M195.945 41.1847H201.708C202.027 44.6629 204.386 46.8781 208.196 46.8781C211.598 46.8781 213.959 45.5455 213.959 42.7869C213.959 36.113 196.892 40.739 196.892 28.8174C196.896 23.7023 201.387 20.1479 207.839 20.1479C214.553 20.1479 219.088 23.9283 219.365 29.7565H213.633C213.363 27.0435 211.195 25.2196 207.828 25.2196C204.698 25.2196 202.748 26.6435 202.748 28.8218C202.748 35.7174 220.037 30.5609 220.037 42.7021C220.037 48.4846 215.182 51.9998 208.198 51.9998C200.986 51.9998 196.269 47.7281 195.952 41.189" fill="#012A35"/>
<path fill-rule="evenodd" clip-rule="evenodd" d="M29.7513 14.261C28.0767 11.3817 23.8903 11.3817 22.2157 14.261L3.96535 45.641C2.29077 48.5204 4.38399 52.1195 7.73316 52.1195H21.9804C20.5493 50.8688 20.0193 48.7051 21.1023 46.8487L34.9243 23.1556L29.7513 14.261Z" fill="#80EEC0"/>
<path d="M41.3151 21.1443C42.701 18.7885 46.1656 18.7885 47.5515 21.1443L62.6552 46.8188C64.0411 49.1746 62.3088 52.1194 59.537 52.1194H29.3296C26.5579 52.1194 24.8255 49.1746 26.2114 46.8188L41.3151 21.1443Z" fill="#00DC82"/>
</svg>

<svg fill="none" height="65" viewBox="0 0 221 65" width="221" xmlns="http://www.w3.org/2000/svg"><path d="m76.333 20.5h6.486l13.744 21.976v-21.976h5.987v31.14h-6.441l-13.79-21.93v21.93h-5.986zm52.978 31.14h-5.579v-3.48c-1.27 2.448-3.855 3.826-7.12 3.826-5.171 0-8.529-3.648-8.529-8.898v-13.87h5.579v12.724c0 3.07 1.906 5.204 4.763 5.204 3.13 0 5.307-2.402 5.307-5.694v-12.234h5.579v22.421zm19.413-.355-5.352-7.474-5.353 7.474h-5.943l8.257-11.7-7.621-10.722h6.078l4.582 6.452 4.534-6.452h6.125l-7.667 10.722 8.256 11.7zm17.236-28.829v6.761h6.351v4.583h-6.351v11.13c0 .374.151.733.421.997.269.265.634.413 1.016.414h4.914v5.29h-3.675c-4.99 0-8.255-2.849-8.255-7.827v-10h-4.49v-4.587h2.817c1.314 0 2.079-.767 2.079-2.037v-4.724zm20.414 22.131v-24.087h5.985v22.242c0 6.006-2.948 8.897-7.937 8.897h-6.967v-5.289h7.122c.476 0 .934-.186 1.271-.516s.526-.78.526-1.247m9.571-3.402h5.763c.319 3.478 2.678 5.693 6.488 5.693 3.402 0 5.763-1.333 5.763-4.091 0-6.674-17.067-2.048-17.067-13.97.004-5.115 4.495-8.67 10.947-8.67 6.714 0 11.249 3.781 11.526 9.61h-5.732c-.27-2.713-2.438-4.537-5.805-4.537-3.13 0-5.08 1.424-5.08 3.602 0 6.895 17.289 1.739 17.289 13.88 0 5.783-4.855 9.298-11.839 9.298-7.212 0-11.929-4.272-12.246-10.811" fill="#012a35"/><path clip-rule="evenodd" d="m29.751 14.261c-1.674-2.88-5.86-2.88-7.535 0l-18.25 31.38c-1.675 2.88.418 6.479 3.767 6.479h14.247c-1.43-1.251-1.96-3.415-.878-5.271l13.822-23.693z" fill="#80eec0" fill-rule="evenodd"/><path d="m41.315 21.144c1.386-2.355 4.85-2.355 6.236 0l15.104 25.676c1.386 2.356-.346 5.3-3.118 5.3h-30.207c-2.772 0-4.504-2.944-3.119-5.3l15.104-25.675z" fill="#00dc82"/></svg>
